X: 1
T: Ronde des chasseurs
T: Ronde de Quercy
S: Handout at 2014 NEFFA
S: Handout at 2014 NEFFA
S: Handout at 2014 NEFFA
Z: 2015 John Chambers <jc:trillian.mit.edu>
M: 2/4
L: 1/16
K: Em
|:\
"Em"E2GF E2E2 | "D"B2AB "Em"E2E2 |\
"Em"E2GF E2E2 | "D"B2AB "Em"E4 :|
|:\
"Em"E2G2 B2B2 | "G"GEGB "D"A4 |\
"C"E4 "G"G2AB | "D"A2B2 "Em"G2E2 :|
